packages/dialtone-icons/src/svg/icons/controls/sidebar-open.svg

<svg width="12" height="12" viewBox="0 0 12 12" fill="none" xmlns="http://www.w3.org/2000/svg">
<path fill-rule="evenodd" clip-rule="evenodd" d="M6.64663 4.14657C6.84189 3.95131 7.15847 3.95131 7.35374 4.14657L8.85374 5.64657C9.049 5.84183 9.049 6.15841 8.85374 6.35368L7.35374 7.85368C7.15847 8.04894 6.84189 8.04894 6.64663 7.85368C6.45137 7.65841 6.45137 7.34183 6.64663 7.14657L7.79308 6.00012L6.64663 4.85368C6.45137 4.65841 6.45137 4.34183 6.64663 4.14657Z" fill="black"/>
<path fill-rule="evenodd" clip-rule="evenodd" d="M1.00018 2.50012C1.00018 1.67169 1.67176 1.00012 2.50018 1.00012H9.50018C10.3286 1.00012 11.0002 1.67169 11.0002 2.50012V9.50012C11.0002 10.3285 10.3286 11.0001 9.50018 11.0001H2.50018C1.67176 11.0001 1.00018 10.3285 1.00018 9.50012V2.50012ZM2.50018 2.00012C2.22404 2.00012 2.00018 2.22398 2.00018 2.50012V9.50012C2.00018 9.77626 2.22404 10.0001 2.50018 10.0001H4.00018V2.00012H2.50018ZM10.0002 9.50012C10.0002 9.77626 9.77633 10.0001 9.50018 10.0001H5.00018V2.00012H9.50018C9.77633 2.00012 10.0002 2.22398 10.0002 2.50012V9.50012ZM6.64663 4.14657C6.84189 3.95131 7.15847 3.95131 7.35374 4.14657L8.85374 5.64657C9.049 5.84183 9.049 6.15841 8.85374 6.35368L7.35374 7.85368C7.15847 8.04894 6.84189 8.04894 6.64663 7.85368C6.45137 7.65841 6.45137 7.34183 6.64663 7.14657L7.79308 6.00012L6.64663 4.85368C6.45137 4.65841 6.45137 4.34183 6.64663 4.14657Z" fill="black"/>
</svg>

<svg xmlns="http://www.w3.org/2000/svg" width="12" height="12" fill="none" viewBox="0 0 12 12">
  <path fill="#000" fill-rule="evenodd" d="M2.5 2a.5.5 0 0 0-.5.5v7a.5.5 0 0 0 .5.5h7a.5.5 0 0 0 .5-.5v-7a.5.5 0 0 0-.5-.5h-7ZM1 2.5A1.5 1.5 0 0 1 2.5 1h7A1.5 1.5 0 0 1 11 2.5v7A1.5 1.5 0 0 1 9.5 11h-7A1.5 1.5 0 0 1 1 9.5v-7Z" clip-rule="evenodd"/>
  <path fill="#000" fill-rule="evenodd" d="M4.5 1a.5.5 0 0 1 .5.5v9a.5.5 0 1 1-1 0v-9a.5.5 0 0 1 .5-.5Zm2.147 3.147a.5.5 0 0 1 .707 0l1.5 1.5a.5.5 0 0 1 0 .707l-1.5 1.5a.5.5 0 0 1-.707-.707L7.793 6 6.647 4.854a.5.5 0 0 1 0-.707Z" clip-rule="evenodd"/>
</svg>
